apps/web/src/assets/svgs/search.svg

<?xml version="1.0" encoding="UTF-8" standalone="no"?>
<!-- Created with Inkscape (http://www.inkscape.org/) -->

<svg
   width="8mm"
   height="8mm"
   viewBox="0 0 8 8"
   version="1.1"
   id="svg1"
   sodipodi:docname="search_flat.svg"
   inkscape:version="1.3.2 (091e20ef0f, 2023-11-25)"
   xmlns:inkscape="http://www.inkscape.org/namespaces/inkscape"
   xmlns:sodipodi="http://sodipodi.sourceforge.net/DTD/sodipodi-0.dtd"
   xmlns="http://www.w3.org/2000/svg"
   xmlns:svg="http://www.w3.org/2000/svg">
  <sodipodi:namedview
     id="namedview1"
     pagecolor="#ffffff"
     bordercolor="#000000"
     borderopacity="0.25"
     inkscape:showpageshadow="2"
     inkscape:pageopacity="0.0"
     inkscape:pagecheckerboard="0"
     inkscape:deskcolor="#d1d1d1"
     inkscape:document-units="mm"
     inkscape:zoom="14.525235"
     inkscape:cx="24.99099"
     inkscape:cy="33.872086"
     inkscape:window-width="2560"
     inkscape:window-height="1515"
     inkscape:window-x="0"
     inkscape:window-y="1415"
     inkscape:window-maximized="1"
     inkscape:current-layer="layer1" />
  <defs
     id="defs1" />
  <g
     inkscape:label="Capa 1"
     inkscape:groupmode="layer"
     id="layer1"
     transform="translate(-187.87569,-76.926987)">
    <g
       id="g247-0"
       transform="matrix(1.0486191,0,0,1.0486191,139.94417,-94.46695)">
      <path
         id="circle169-6"
         style="color:#000000;fill:#000000;stroke-linecap:round;stroke-linejoin:round;-inkscape-stroke:none"
         d="M 36.744344 166.81043 C 36.695773 166.80796 36.647066 166.80641 36.597896 166.80641 C 35.024442 166.80641 33.744378 168.08678 33.744378 169.66024 C 33.744378 171.23369 35.024118 172.5157 36.597571 172.51569 C 37.296441 172.51569 37.937391 172.26231 38.43447 171.84328 L 40.608584 174.00905 A 0.27682999 0.27682999 0 0 0 41.000457 174.00783 A 0.27682999 0.27682999 0 0 0 40.998607 173.61789 L 38.821858 171.44749 C 39.216376 170.95769 39.453196 170.33585 39.453196 169.66004 C 39.453196 168.13575 38.250045 166.887 36.744344 166.81043 z M 36.716374 167.36227 C 37.93517 167.42369 38.90034 168.42574 38.90034 169.66016 C 38.90034 170.93439 37.871687 171.96283 36.597452 171.96283 C 35.323218 171.96283 34.296742 170.93431 34.296742 169.66009 C 34.296742 168.38585 35.32329 167.35925 36.597523 167.35924 C 36.637343 167.35924 36.677058 167.36029 36.716374 167.36227 z M 36.330713 168.26064 A 0.27682999 0.27682999 0 0 0 36.034241 168.51766 A 0.27682999 0.27682999 0 0 0 36.291262 168.81414 L 37.949286 168.93231 A 0.27682999 0.27682999 0 0 0 38.245267 168.67526 A 0.27682999 0.27682999 0 0 0 37.988737 168.37882 L 36.330713 168.26064 z M 40.029688 168.7807 A 0.23069149 0.23069149 0 0 0 39.781275 168.99421 A 0.23069149 0.23069149 0 0 0 39.996894 169.2408 L 40.540065 169.27952 A 0.23069149 0.23069149 0 0 0 40.786511 169.06586 A 0.23069149 0.23069149 0 0 0 40.572859 168.81942 L 40.029688 168.7807 z M 36.246276 169.4453 A 0.27682999 0.27682999 0 0 0 35.949804 169.70232 A 0.27682999 0.27682999 0 0 0 36.20686 169.9983 L 38.178498 170.13883 A 0.27682999 0.27682999 0 0 0 38.474444 169.88226 A 0.27682999 0.27682999 0 0 0 38.217913 169.58583 L 36.246276 169.4453 z M 40.086576 169.76397 A 0.23069149 0.23069149 0 0 0 39.840622 169.97766 A 0.23069149 0.23069149 0 0 0 40.053818 170.22358 L 40.470659 170.25329 A 0.23069149 0.23069149 0 0 0 40.717069 170.04013 A 0.23069149 0.23069149 0 0 0 40.503417 169.79368 L 40.086576 169.76397 z M 39.836242 170.72535 A 0.23069149 0.23069149 0 0 0 39.589831 170.93851 A 0.23069149 0.23069149 0 0 0 39.803343 171.18692 L 40.401077 171.22952 A 0.23069149 0.23069149 0 0 0 40.647663 171.01391 A 0.23069149 0.23069149 0 0 0 40.433976 170.76795 L 39.836242 170.72535 z M 36.161874 170.62946 A 0.27682999 0.27682999 0 0 0 35.865402 170.88648 A 0.27682999 0.27682999 0 0 0 36.122564 171.18099 L 37.649833 171.28984 A 0.27682999 0.27682999 0 0 0 37.946165 171.03479 A 0.27682999 0.27682999 0 0 0 37.689144 170.73832 L 36.161874 170.62946 z "
         transform="rotate(-4.076891)" />
      <g
         id="g246-61" />
    </g>
  </g>
</svg>

<svg xmlns="http://www.w3.org/2000/svg" width="8mm" height="8mm" viewBox="0 0 8 8"><path d="m36.744 166.81-.146-.004a2.857 2.857 0 0 0-2.854 2.854 2.86 2.86 0 0 0 2.854 2.856c.698 0 1.34-.254 1.836-.673l2.175 2.166a.277.277 0 0 0 .391-.001.277.277 0 0 0-.001-.39l-2.177-2.17c.394-.49.631-1.112.631-1.788a2.86 2.86 0 0 0-2.709-2.85m-.028.552a2.3 2.3 0 0 1 2.184 2.298 2.3 2.3 0 0 1-2.303 2.303 2.3 2.3 0 0 1-2.3-2.303 2.296 2.296 0 0 1 2.42-2.298m-.385.899a.277.277 0 0 0-.297.257.277.277 0 0 0 .257.296l1.658.118a.277.277 0 0 0 .296-.257.277.277 0 0 0-.256-.296zm3.699.52a.23.23 0 0 0-.249.213.23.23 0 0 0 .216.247l.543.039a.23.23 0 0 0 .247-.214.23.23 0 0 0-.214-.247zm-3.784.664a.277.277 0 0 0-.296.257.277.277 0 0 0 .257.296l1.971.14a.277.277 0 0 0 .296-.256.277.277 0 0 0-.256-.296zm3.84.319a.23.23 0 0 0-.245.214.23.23 0 0 0 .213.246l.417.03a.23.23 0 0 0 .246-.214.23.23 0 0 0-.214-.246zm-.25.961a.23.23 0 0 0-.246.214.23.23 0 0 0 .213.248l.598.043a.23.23 0 0 0 .247-.216.23.23 0 0 0-.214-.246zm-3.674-.096a.277.277 0 0 0-.297.257.277.277 0 0 0 .258.295l1.527.109a.277.277 0 0 0 .296-.255.277.277 0 0 0-.257-.297z" style="color:#000;fill:#000;stroke-linecap:round;stroke-linejoin:round;-inkscape-stroke:none" transform="rotate(-4.078 -2431.692 587.61)scale(1.04862)"/></svg>
